ui/StatusQ/src/assets/img/icons/approve.svg

<svg fill="none" height="24" viewBox="0 0 24 24" width="24" xmlns="http://www.w3.org/2000/svg"><g fill="#000"><path d="m8.14203 5.91248c-.23204-.13396-.51792-.13396-.74995 0l-.54905.31696c-.16668.09623-.16668.3368 0 .43303l.54703.3158c.11464.06618.15568.20974.11233.33482-.06873.19833-.09826.40165-.08667.6061.03136.55296.36196 1.08637.94537 1.5253.58341.43892 1.39032.76131 2.30741.92191.7331.1284 1.5073.1482 2.2519.0602.2305-.0273.4652.0128.6662.1288l.4403.2542c.2321.134.518.134.75 0l.549-.3169c.1667-.0963.1667-.3368 0-.4331l-.1969-.11365c-.0693-.04002-.0661-.14169.0044-.17973.0652-.03524.1288-.07161.1905-.10907.1082-.06574.244-.07177.3537-.00843l.1802.10402c.232.13396.5179.13396.7499 0l.5491-.31697c.1666-.09622.1666-.33679 0-.43302l-.547-.31577c-.1147-.06618-.1557-.20975-.1124-.33483.0221-.06355.0401-.12762.054-.19211.0385-.17815-.1125-.32749-.2948-.32749h-1.1771c-.1823 0-.3259.15178-.3877.32324-.0776.21549-.2325.4205-.4569.60133-.3346.26958-.8071.47189-1.3512.57849-.544.10661-1.1321.11217-1.6819.01589-.5498-.09627-1.0335-.28954-1.3832-.55266-.34973-.26312-.54791-.58287-.56671-.91435-.01879-.33148.14274-.65803.46191-.93379.3192-.27576.78-.48688 1.3176-.60371.4183-.09088.8668-.12115 1.3066-.0897.2221.01589.4381-.09703.5319-.29906l.1324-.28536c.0925-.19922-.0319-.43142-.2505-.4524-.5555-.05328-1.1225-.04698-1.6726.01809-.2304.02726-.4652-.01281-.6661-.12883l-.44026-.25414c-.23204-.13395-.51791-.13395-.74995 0l-.54905.31697c-.16668.09622-.16668.3368 0 .43302l.19687.11366c.06933.04002.06607.14168-.00436.17972-.06527.03526-.12879.07163-.19047.10908-.10828.06575-.244.07177-.35371.00844z"/><path clip-rule="evenodd" d="m2 7.75c0-3.17564 4.47715-5.75 10-5.75 5.5228 0 10 2.57436 10 5.75v8.5c0 3.1756-4.4772 5.75-10 5.75-5.52285 0-10-2.5744-10-5.75zm16.3234 2.7655c1.5844-.91105 2.1766-1.94354 2.1766-2.7655s-.5922-1.85445-2.1766-2.7655c-1.5438-.88766-3.7762-1.4845-6.3234-1.4845s-4.77962.59684-6.32336 1.4845c-1.58444.91105-2.17664 1.94354-2.17664 2.7655s.5922 1.85445 2.17664 2.7655c1.54374.8877 3.77616 1.4845 6.32336 1.4845s4.7796-.5968 6.3234-1.4845zm-6.3234 2.9845c3.3101 0 6.2446-.9248 8.0647-2.3495.1717-.1344.4353-.0161.4353.202v.6475c0 .822-.5922 1.8545-2.1766 2.7655-1.5438.8877-3.7762 1.4845-6.3234 1.4845s-4.77962-.5968-6.32336-1.4845c-1.58444-.911-2.17664-1.9435-2.17664-2.7655v-.6475c0-.2181.2636-.3364.43533-.202 1.82006 1.4247 4.75455 2.3495 8.06467 2.3495zm8.0647 1.9005c.1717-.1344.4353-.0161.4353.202v.3975c0 .822-.5922 2.1045-2.1766 3.0155-1.5438.8877-3.7762 1.4845-6.3234 1.4845s-4.77962-.5968-6.32336-1.4845c-1.58444-.911-2.17664-1.9435-2.17664-2.7655v-.6475c0-.2181.2636-.3364.43533-.202 1.82006 1.4247 4.75455 2.3495 8.06467 2.3495 3.3101 0 6.2446-.9248 8.0647-2.3495z" fill-rule="evenodd"/></g></svg>

<svg width="24" height="24" viewBox="0 0 24 24" fill="none" xmlns="http://www.w3.org/2000/svg">
<path d="M8.14203 5.91248C7.90999 5.77852 7.62411 5.77852 7.39208 5.91248L6.84303 6.22944C6.67635 6.32567 6.67635 6.56624 6.84303 6.66247L7.39006 6.97827C7.5047 7.04445 7.54574 7.18801 7.50239 7.31309C7.43366 7.51142 7.40413 7.71474 7.41572 7.91919C7.44708 8.47215 7.77768 9.00556 8.36109 9.44449C8.9445 9.88341 9.75141 10.2058 10.6685 10.3664C11.4016 10.4948 12.1758 10.5146 12.9204 10.4266C13.1509 10.3993 13.3856 10.4394 13.5866 10.5554L14.0269 10.8096C14.259 10.9436 14.5449 10.9436 14.7769 10.8096L15.3259 10.4927C15.4926 10.3964 15.4926 10.1559 15.3259 10.0596L15.129 9.94595C15.0597 9.90593 15.0629 9.80426 15.1334 9.76622C15.1986 9.73098 15.2622 9.69461 15.3239 9.65715C15.4321 9.59141 15.5679 9.58538 15.6776 9.64872L15.8578 9.75274C16.0898 9.8867 16.3757 9.8867 16.6077 9.75274L17.1568 9.43577C17.3234 9.33955 17.3234 9.09898 17.1568 9.00275L16.6098 8.68698C16.4951 8.6208 16.4541 8.47723 16.4974 8.35215C16.5195 8.2886 16.5375 8.22453 16.5514 8.16004C16.5899 7.98189 16.4389 7.83255 16.2566 7.83255H15.0795C14.8972 7.83255 14.7536 7.98433 14.6918 8.15579C14.6142 8.37128 14.4593 8.57629 14.2349 8.75712C13.9003 9.0267 13.4278 9.22901 12.8837 9.33561C12.3397 9.44222 11.7516 9.44778 11.2018 9.3515C10.652 9.25523 10.1683 9.06196 9.8186 8.79884C9.46887 8.53572 9.27069 8.21597 9.25189 7.88449C9.2331 7.55301 9.39463 7.22646 9.7138 6.9507C10.033 6.67494 10.4938 6.46382 11.0314 6.34699C11.4497 6.25611 11.8982 6.22584 12.338 6.25729C12.5601 6.27318 12.7761 6.16026 12.8699 5.95823L13.0023 5.67287C13.0948 5.47365 12.9704 5.24145 12.7518 5.22047C12.1963 5.16719 11.6293 5.17349 11.0792 5.23856C10.8488 5.26582 10.614 5.22575 10.4131 5.10973L9.97284 4.85559C9.7408 4.72164 9.45493 4.72164 9.22289 4.85559L8.67384 5.17256C8.50716 5.26878 8.50716 5.50936 8.67384 5.60558L8.87071 5.71924C8.94004 5.75926 8.93678 5.86092 8.86635 5.89896C8.80108 5.93422 8.73756 5.97059 8.67588 6.00804C8.5676 6.07379 8.43188 6.07981 8.32217 6.01648L8.14203 5.91248Z" fill="black"/>
<path fill-rule="evenodd" clip-rule="evenodd" d="M2 7.75C2 4.57436 6.47715 2 12 2C17.5228 2 22 4.57436 22 7.75V16.25C22 19.4256 17.5228 22 12 22C6.47715 22 2 19.4256 2 16.25V7.75ZM18.3234 10.5155C19.9078 9.60445 20.5 8.57196 20.5 7.75C20.5 6.92804 19.9078 5.89555 18.3234 4.9845C16.7796 4.09684 14.5472 3.5 12 3.5C9.4528 3.5 7.22038 4.09684 5.67664 4.9845C4.0922 5.89555 3.5 6.92804 3.5 7.75C3.5 8.57196 4.0922 9.60445 5.67664 10.5155C7.22038 11.4032 9.4528 12 12 12C14.5472 12 16.7796 11.4032 18.3234 10.5155ZM12 13.5C15.3101 13.5 18.2446 12.5752 20.0647 11.1505C20.2364 11.0161 20.5 11.1344 20.5 11.3525V12C20.5 12.822 19.9078 13.8545 18.3234 14.7655C16.7796 15.6532 14.5472 16.25 12 16.25C9.4528 16.25 7.22038 15.6532 5.67664 14.7655C4.0922 13.8545 3.5 12.822 3.5 12V11.3525C3.5 11.1344 3.7636 11.0161 3.93533 11.1505C5.75539 12.5752 8.68988 13.5 12 13.5ZM20.0647 15.4005C20.2364 15.2661 20.5 15.3844 20.5 15.6025V16C20.5 16.822 19.9078 18.1045 18.3234 19.0155C16.7796 19.9032 14.5472 20.5 12 20.5C9.4528 20.5 7.22038 19.9032 5.67664 19.0155C4.0922 18.1045 3.5 17.072 3.5 16.25V15.6025C3.5 15.3844 3.7636 15.2661 3.93533 15.4005C5.75539 16.8252 8.68988 17.75 12 17.75C15.3101 17.75 18.2446 16.8252 20.0647 15.4005Z" fill="black"/>
</svg>
